build/img/advantage_2_mobile.svg

<svg width="59" height="63" viewBox="0 0 59 63" fill="none" xmlns="http://www.w3.org/2000/svg">
<path d="M26.876 5.38184L13.8486 42H5.38086L18.4648 7.4209H1.92578V0.765625H26.876V5.38184ZM55.9893 24.9512C55.9893 30.653 54.9508 35.0143 52.874 38.0352C50.8161 41.056 47.8708 42.5664 44.0381 42.5664C40.2432 42.5664 37.3073 41.1032 35.2305 38.1768C33.1725 35.2314 32.1058 31.0212 32.0303 25.5459V17.7578C32.0303 12.0749 33.0592 7.73242 35.1172 4.73047C37.1751 1.70964 40.1299 0.199219 43.9814 0.199219C47.833 0.199219 50.7878 1.69076 52.8457 4.67383C54.9036 7.6569 55.9515 11.9144 55.9893 17.4463V24.9512ZM47.9463 16.5967C47.9463 13.3493 47.6253 10.9137 46.9834 9.29004C46.3415 7.66634 45.3408 6.85449 43.9814 6.85449C41.4326 6.85449 40.111 9.82812 40.0166 15.7754V26.0557C40.0166 29.3786 40.3376 31.8519 40.9795 33.4756C41.6403 35.0993 42.6598 35.9111 44.0381 35.9111C45.3408 35.9111 46.3037 35.1559 46.9268 33.6455C47.5687 32.1162 47.9085 29.7845 47.9463 26.6504V16.5967Z" fill="url(#paint0_linear)"/>
<path d="M13.5322 60.3252L15.5146 54.6035H17.0186V62H15.8154V56.9004L13.9492 62H13.1221L11.2148 56.7773V62H10.0117V54.6035H11.5703L13.5322 60.3252ZM22.7607 62C22.6878 61.8405 22.6354 61.5716 22.6035 61.1934C22.1751 61.8223 21.6283 62.1367 20.9629 62.1367C20.293 62.1367 19.7689 61.9499 19.3906 61.5762C19.0169 61.1979 18.8301 60.667 18.8301 59.9834C18.8301 59.2314 19.0853 58.6344 19.5957 58.1924C20.1061 57.7503 20.8057 57.5247 21.6943 57.5156H22.583V56.7295C22.583 56.2874 22.485 55.973 22.2891 55.7861C22.0931 55.5993 21.7946 55.5059 21.3936 55.5059C21.029 55.5059 20.7327 55.6152 20.5049 55.834C20.277 56.0482 20.1631 56.3216 20.1631 56.6543H18.9531C18.9531 56.276 19.0648 55.916 19.2881 55.5742C19.5114 55.2279 19.8122 54.9567 20.1904 54.7607C20.5687 54.5648 20.9902 54.4668 21.4551 54.4668C22.2116 54.4668 22.7858 54.6559 23.1777 55.0342C23.5742 55.4079 23.777 55.9548 23.7861 56.6748V60.4072C23.7907 60.9769 23.8682 61.4714 24.0186 61.8906V62H22.7607ZM21.1475 61.0361C21.4437 61.0361 21.7262 60.9541 21.9951 60.79C22.264 60.626 22.46 60.4209 22.583 60.1748V58.4111H21.8994C21.3252 58.4202 20.8717 58.5501 20.5391 58.8008C20.2064 59.0469 20.04 59.3932 20.04 59.8398C20.04 60.2591 20.1243 60.5645 20.293 60.7559C20.4616 60.9427 20.7464 61.0361 21.1475 61.0361ZM26.9922 54.6035V60.9678H29.0771V54.6035H30.2803V60.9678H32.3721V54.6035H33.582V62H25.7754V54.6035H26.9922ZM39.5225 54.6035H40.7256V62H39.5225V56.6064L36.8428 62H35.6328V54.6035H36.8428V60.0039L39.5225 54.6035ZM47.8555 62H46.6523V58.8418H43.9863V62H42.7695V54.6035H43.9863V57.8096H46.6523V54.6035H47.8555V62Z" fill="#2E35AC"/>
<defs>
<linearGradient id="paint0_linear" x1="0" y1="2" x2="25.2696" y2="50.5869" gradientUnits="userSpaceOnUse">
<stop stop-color="#D10A42"/>
<stop offset="1" stop-color="#0041CA"/>
</linearGradient>
</defs>
</svg>

<svg width="59" height="63" fill="none" xmlns="http://www.w3.org/2000/svg"><path d="M26.876 5.382L13.849 42H5.38L18.465 7.42H1.925V.767h24.951v4.616zm29.113 19.57c0 5.701-1.038 10.062-3.115 13.083-2.058 3.021-5.003 4.531-8.836 4.531-3.795 0-6.73-1.463-8.807-4.39-2.059-2.945-3.125-7.155-3.2-12.63v-7.788c0-5.683 1.028-10.026 3.086-13.028C37.175 1.71 40.13.2 43.981.2c3.852 0 6.807 1.49 8.865 4.474 2.058 2.983 3.106 7.24 3.143 12.772v7.505zm-8.043-8.355c0-3.248-.32-5.683-.963-7.307-.641-1.624-1.642-2.436-3.002-2.436-2.548 0-3.87 2.974-3.964 8.921v10.28c0 3.324.32 5.797.962 7.42.661 1.624 1.68 2.436 3.06 2.436 1.302 0 2.265-.755 2.888-2.266.642-1.529.981-3.86 1.02-6.995V16.597z" fill="url(#paint0_linear)"/><path d="M13.532 60.325l1.983-5.722h1.504V62h-1.204v-5.1L13.95 62h-.827l-1.907-5.223V62h-1.203v-7.397h1.558l1.962 5.722zM22.761 62c-.073-.16-.126-.428-.157-.807-.429.63-.976.944-1.641.944-.67 0-1.194-.187-1.572-.56-.374-.38-.56-.91-.56-1.594 0-.752.254-1.349.765-1.79.51-.443 1.21-.668 2.098-.677h.889v-.786c0-.443-.098-.757-.294-.944-.196-.187-.494-.28-.895-.28-.365 0-.661.11-.89.328a1.076 1.076 0 00-.34.82h-1.21c0-.378.11-.738.334-1.08.223-.346.524-.617.902-.813a2.71 2.71 0 011.265-.294c.757 0 1.33.189 1.723.567.396.374.599.92.608 1.64v3.733c.005.57.082 1.064.233 1.484V62H22.76zm-1.613-.964c.296 0 .578-.082.847-.246.269-.164.465-.37.588-.615V58.41h-.684c-.574.01-1.027.14-1.36.39-.333.246-.499.592-.499 1.039 0 .42.084.724.253.916.169.187.453.28.855.28zm5.844-6.433v6.365h2.085v-6.365h1.203v6.365h2.092v-6.365h1.21V62h-7.807v-7.397h1.217zm12.53 0h1.204V62h-1.203v-5.394L36.843 62h-1.21v-7.397h1.21v5.4l2.68-5.4zM47.856 62h-1.204v-3.158h-2.666V62H42.77v-7.397h1.216v3.207h2.666v-3.207h1.203V62z" fill="#2E35AC"/><defs><linearGradient id="paint0_linear" x1="0" y1="2" x2="25.27" y2="50.587" gradientUnits="userSpaceOnUse"><stop stop-color="#D10A42"/><stop offset="1" stop-color="#0041CA"/></linearGradient></defs></svg>
